X:1
T:[ID 4-9r]
T:[ID 4-9r]
T:Bezeichnung standardisiert: Menuett Men\"uet \"Ahnlich in dieser Quelle: ID 1-141b; ID 7-120a;
T:Urheber unbekannt Datum in der hier transkribierten schriftlichen Quelle: 1767
C:Urheber unbekannt
C:Datum in der hier transkribierten schriftlichen Quelle: 1767
L:1/8
M:3/4
K:D
V:1 treble 
V:1
 D2 FDFA | d2 defg | a2 a2 b2 |{a} g4 f2 | a2 Ta3/2a/4a/4 b2 | g2 Tg3/2g/4g/4 a2 | fa g2 f2 | e6 :: %8
 a4 fa | g2 cAec | g4 (3efg | f2 DFAF | DdBbge | a2 dc d2 | G2 F2 EC | D6 :| %16

